X: 55
T: Rainy Night in Montague
C: George Reynolds
R: reel
Z: 2011 John Chambers <jc:trillian.mit.edu>
M: C|
L: 1/8
K: Ddor
|:\
"Dm"ADCA, G,A,CD | ADCA, G,A,CD | "C"E2ED EGED | E2ED EGED |
"Dm"ADCA, G,A,CD | ADCA, G,A,CD | "C"E2ED "Am"EGED |1 "Dm"D2DD G,A,CD :|2 "Dm"D2DD D2DD ||
|:\
"Dm"Addc d2dc | AGAB c2cB | "C"AGEG AdcB | "Am"A2AB c2cB |
"Dm"Addc d2dc | AGAB c2cB | "Am"AGEG AGED |1 "Dm"D2DD DEFG :|2 "Dm"D2DD D2DD |]

%%sep 1 1 500

